assets/img/whale.svg

<svg width="385" height="89" viewBox="0 0 385 89" fill="none" xmlns="http://www.w3.org/2000/svg">
<path d="M234.373 62.5214H279.701C279.701 27.9918 251.709 0 217.179 0V45.328C217.179 54.8236 224.877 62.5214 234.373 62.5214Z" fill="#286AD8"/>
<path d="M279.701 62.5214C318.938 62.5214 342.222 39.022 342.222 -3.36766e-06C302.338 -3.36766e-06 279.701 22.4215 279.701 62.5214Z" fill="#286AD8"/>
<path d="M234.373 62.5214H279.701C279.701 27.9918 251.709 0 217.179 0V45.328C217.179 54.8236 224.877 62.5214 234.373 62.5214Z" fill="#286AD8"/>
<path d="M279.701 62.5214C318.938 62.5214 342.222 39.022 342.222 -3.36766e-06C302.338 -3.36766e-06 279.701 22.4215 279.701 62.5214Z" fill="#286AD8"/>
<path d="M217.18 0V45.3281C217.18 54.8238 209.569 62.5214 200.181 62.5215H109.136C99.7475 62.5215 92.1368 54.8238 92.1367 45.3281V0H217.18Z" fill="#286AD8"/>
<path d="M234.373 62.5214H279.701C279.701 27.9918 251.709 0 217.179 0V45.328C217.179 54.8236 224.877 62.5214 234.373 62.5214Z" fill="#286AD8"/>
<path d="M279.27 62.5214C318.508 62.5214 341.791 39.022 341.791 -3.36766e-06C301.907 -3.36766e-06 279.27 22.4215 279.27 62.5214Z" fill="#286AD8"/>
<path d="M161.841 52.4948H141.353C140.214 52.4948 139.454 51.7973 139.454 50.7511C139.454 49.7049 140.214 49.0075 141.353 49.0075H161.841C162.98 49.0075 163.74 49.705 163.74 50.7511C163.74 51.7973 162.98 52.4948 161.841 52.4948Z" fill="#5187DF"/>
<path d="M195.877 52.4948H175.389C174.25 52.4948 173.49 51.7973 173.49 50.7511C173.49 49.7049 174.25 49.0075 175.389 49.0075H195.877C197.017 49.0075 197.776 49.705 197.776 50.7511C197.776 51.7973 197.017 52.4948 195.877 52.4948Z" fill="#5187DF"/>
<path d="M171.89 41.1589H107.993C106.49 41.1589 105.489 40.1127 105.489 38.5433C105.489 36.9738 106.49 35.9305 107.993 35.9305H171.89C173.392 35.9305 174.394 36.9738 174.394 38.5433C174.394 40.1127 173.392 41.1589 171.89 41.1589Z" fill="#5187DF"/>
<path d="M127.804 52.4948H107.317C106.177 52.4948 105.417 51.7973 105.417 50.7511C105.417 49.7049 106.177 49.0075 107.317 49.0075H127.804C128.944 49.0075 129.704 49.705 129.704 50.7511C129.704 51.7973 128.944 52.4948 127.804 52.4948Z" fill="#5187DF"/>
<circle cx="110.235" cy="18.0983" r="4.9359" fill="#081B2B"/>
<mask id="mask0_12432_11997" style="mask-type:alpha" maskUnits="userSpaceOnUse" x="345" y="29" width="40" height="41">
<rect x="345.513" y="29.6154" width="39.4872" height="39.4872" fill="#D9D9D9"/>
</mask>
<g mask="url(#mask0_12432_11997)">
<path d="M354.274 57.5855C353.479 57.5855 352.903 57.7569 352.546 58.0996C352.19 58.4424 351.696 58.6823 351.066 58.8194C350.435 58.9566 349.9 58.8949 349.461 58.6344C349.023 58.3738 348.803 57.9831 348.803 57.4621C348.803 57.0508 348.982 56.6531 349.338 56.2692C349.695 55.8853 350.257 55.5014 351.024 55.1175C351.162 55.0353 351.525 54.8776 352.115 54.6445C352.704 54.4114 353.479 54.2949 354.438 54.2949C355.947 54.2949 356.961 54.5691 357.482 55.1175C358.003 55.666 358.771 55.9402 359.786 55.9402C360.8 55.9402 361.561 55.666 362.069 55.1175C362.576 54.5691 363.625 54.2949 365.215 54.2949C366.806 54.2949 367.882 54.5691 368.444 55.1175C369.006 55.666 369.795 55.9402 370.809 55.9402C371.824 55.9402 372.564 55.666 373.03 55.1175C373.497 54.5691 374.511 54.2949 376.074 54.2949C376.705 54.2949 377.315 54.3703 377.905 54.5211C378.494 54.6719 379.091 54.8982 379.694 55.1998C380.379 55.5563 380.887 55.9265 381.216 56.3104C381.545 56.6943 381.709 57.0782 381.709 57.4621C381.709 57.9831 381.49 58.3738 381.051 58.6344C380.612 58.8949 380.078 58.9566 379.447 58.8194C378.816 58.6823 378.316 58.4424 377.946 58.0996C377.576 57.7569 377.007 57.5855 376.239 57.5855C375.224 57.5855 374.463 57.8597 373.956 58.4081C373.449 58.9566 372.4 59.2308 370.809 59.2308C369.219 59.2308 368.142 58.9566 367.58 58.4081C367.018 57.8597 366.23 57.5855 365.215 57.5855C364.201 57.5855 363.44 57.8597 362.932 58.4081C362.425 58.9566 361.362 59.2308 359.745 59.2308C358.127 59.2308 357.071 58.9566 356.577 58.4081C356.084 57.8597 355.316 57.5855 354.274 57.5855Z" fill="#5187DF"/>
</g>
<mask id="mask1_12432_11997" style="mask-type:alpha" maskUnits="userSpaceOnUse" x="0" y="49" width="40" height="40">
<rect y="49.359" width="39.4872" height="39.4872" fill="#D9D9D9"/>
</mask>
<g mask="url(#mask1_12432_11997)">
<path d="M8.76115 77.3291C7.96592 77.3291 7.39007 77.5005 7.03358 77.8432C6.6771 78.186 6.18351 78.4259 5.55281 78.563C4.92212 78.7001 4.38739 78.6385 3.94865 78.3779C3.5099 78.1174 3.29053 77.7267 3.29053 77.2057C3.29053 76.7943 3.46877 76.3967 3.82525 76.0128C4.18173 75.6289 4.74388 75.245 5.51168 74.8611C5.64879 74.7789 6.01213 74.6212 6.60169 74.3881C7.19126 74.155 7.96592 74.0385 8.92568 74.0385C10.4339 74.0385 11.4485 74.3127 11.9695 74.8611C12.4905 75.4096 13.2583 75.6838 14.2729 75.6838C15.2875 75.6838 16.0485 75.4096 16.5558 74.8611C17.0631 74.3127 18.1119 74.0385 19.7024 74.0385C21.2928 74.0385 22.3691 74.3127 22.9313 74.8611C23.4934 75.4096 24.2818 75.6838 25.2964 75.6838C26.311 75.6838 27.0514 75.4096 27.5176 74.8611C27.9837 74.3127 28.9983 74.0385 30.5614 74.0385C31.1921 74.0385 31.8022 74.1139 32.3918 74.2647C32.9813 74.4155 33.5777 74.6417 34.181 74.9434C34.8666 75.2999 35.3739 75.6701 35.7029 76.054C36.032 76.4379 36.1965 76.8218 36.1965 77.2057C36.1965 77.7267 35.9771 78.1174 35.5384 78.3779C35.0997 78.6385 34.5649 78.7001 33.9342 78.563C33.3035 78.4259 32.8031 78.186 32.4329 77.8432C32.0627 77.5005 31.4937 77.3291 30.7259 77.3291C29.7113 77.3291 28.9503 77.6033 28.443 78.1517C27.9357 78.7001 26.8869 78.9744 25.2964 78.9744C23.706 78.9744 22.6297 78.7001 22.0675 78.1517C21.5054 77.6033 20.717 77.3291 19.7024 77.3291C18.6878 77.3291 17.9268 77.6033 17.4195 78.1517C16.9122 78.7001 15.8496 78.9744 14.2318 78.9744C12.6139 78.9744 11.5582 78.7001 11.0646 78.1517C10.571 77.6033 9.80317 77.3291 8.76115 77.3291Z" fill="#5187DF"/>
</g>
</svg>

<svg xmlns="http://www.w3.org/2000/svg" width="385" height="89" fill="none" viewBox="0 0 385 89"><path fill="#286ad8" d="M234.373 62.521h45.328C279.701 27.991 251.709 0 217.179 0v45.328c0 9.496 7.698 17.193 17.194 17.193M279.701 62.521c39.237 0 62.521-23.499 62.521-62.521-39.884 0-62.521 22.422-62.521 62.521"/><path fill="#286ad8" d="M234.373 62.521h45.328C279.701 27.991 251.709 0 217.179 0v45.328c0 9.496 7.698 17.193 17.194 17.193M279.701 62.521c39.237 0 62.521-23.499 62.521-62.521-39.884 0-62.521 22.422-62.521 62.521"/><path fill="#286ad8" d="M217.18 0v45.328c0 9.496-7.611 17.193-16.999 17.194h-91.045c-9.388 0-17-7.698-17-17.194V0z"/><path fill="#286ad8" d="M234.373 62.521h45.328C279.701 27.991 251.709 0 217.179 0v45.328c0 9.496 7.698 17.193 17.194 17.193"/><path fill="#286ad8" d="M279.27 62.521c39.238 0 62.521-23.499 62.521-62.521-39.884 0-62.521 22.422-62.521 62.521"/><path fill="#5187df" d="M161.841 52.495h-20.488c-1.139 0-1.899-.698-1.899-1.744s.76-1.743 1.899-1.743h20.488c1.139 0 1.899.697 1.899 1.743s-.76 1.744-1.899 1.744M195.877 52.495h-20.488c-1.139 0-1.899-.698-1.899-1.744s.76-1.743 1.899-1.743h20.488c1.14 0 1.899.697 1.899 1.743s-.759 1.744-1.899 1.744M171.89 41.159h-63.897c-1.503 0-2.504-1.046-2.504-2.616s1.001-2.612 2.504-2.612h63.897c1.502 0 2.504 1.043 2.504 2.612s-1.002 2.616-2.504 2.616M127.804 52.495h-20.487c-1.14 0-1.9-.698-1.9-1.744s.76-1.743 1.9-1.743h20.487c1.14 0 1.9.697 1.9 1.743s-.76 1.744-1.9 1.744"/><circle cx="110.235" cy="18.098" r="4.936" fill="#081b2b"/><mask id="a" width="40" height="41" x="345" y="29" maskUnits="userSpaceOnUse" style="mask-type:alpha"><path fill="#d9d9d9" d="M345.513 29.615H385v39.487h-39.487z"/></mask><g mask="url(#a)"><path fill="#5187df" d="M354.274 57.586q-1.192-.001-1.728.514-.535.513-1.48.72-.947.206-1.605-.186-.658-.39-.658-1.172 0-.617.535-1.193.536-.576 1.686-1.151.206-.124 1.091-.474.884-.35 2.323-.35 2.263 0 3.044.824.781.822 2.304.822 1.521 0 2.283-.822.76-.823 3.146-.823t3.229.822 2.365.823 2.221-.822 3.044-.823q.946 0 1.831.226.884.226 1.789.679 1.028.534 1.522 1.11.493.576.493 1.152 0 .782-.658 1.172-.658.391-1.604.185t-1.501-.72-1.707-.513q-1.522 0-2.283.822-.76.823-3.147.823-2.385 0-3.229-.823-.843-.822-2.365-.822-1.521 0-2.283.822-.761.823-3.187.823-2.427 0-3.168-.823-.74-.822-2.303-.822"/></g><mask id="b" width="40" height="40" x="0" y="49" maskUnits="userSpaceOnUse" style="mask-type:alpha"><path fill="#d9d9d9" d="M0 49.359h39.487v39.487H0z"/></mask><g mask="url(#b)"><path fill="#5187df" d="M8.761 77.33q-1.192 0-1.727.513-.535.514-1.481.72t-1.604-.185-.658-1.172q0-.618.534-1.193.535-.576 1.687-1.152.205-.123 1.09-.473.884-.35 2.324-.35 2.262 0 3.044.823.78.823 2.303.823t2.283-.823 3.146-.823q2.385 0 3.23.823.842.823 2.364.823t2.222-.823 3.043-.823q.947 0 1.83.227.885.226 1.79.678 1.029.535 1.522 1.111t.493 1.152q0 .78-.658 1.172-.657.39-1.604.185-.945-.205-1.501-.72-.556-.514-1.707-.514-1.522 0-2.283.823-.76.822-3.147.822-2.385 0-3.229-.822-.843-.823-2.365-.823-1.521 0-2.283.823-.761.822-3.187.822-2.427 0-3.167-.822-.741-.823-2.304-.823"/></g></svg>
